Flat-Remix-Dark/panel/indicator-keyboard-Ie.svg

<svg xmlns="http://www.w3.org/2000/svg" width="22" height="22" version="1.1">
 <defs>
  <style id="current-color-scheme" type="text/css">
   .ColorScheme-Text { color:#d3dae3; } .ColorScheme-Highlight { color:#5294e2; }
  </style>
 </defs>
 <rect style="opacity:0" width="22" height="22" x="0" y="0"/>
 <path style="fill:none;stroke:currentColor;stroke-width:1.99999976;stroke-linecap:round" class="ColorScheme-Text" d="m 5.0000006,15 3.9999988,0 m -3.9999987,-8.0000003 3.9999987,0 M 7.0000023,15 l 0,-8.0000003"/>
 <path style="fill:none;stroke:currentColor;stroke-width:1.99999976;stroke-linecap:round;stroke-linejoin:bevel" class="ColorScheme-Text" d="m 13,14.999898 4,0 m -4,-3.999998 4,0 m -4,-3.9999986 4,0 M 13.0001,15 l 0,-8.0000003"/>
</svg>

<svg xmlns="http://www.w3.org/2000/svg" width="12pt" height="12pt" version="1.1" viewBox="0 0 12 12">
 <g>
  <path style="fill:none;stroke-width:2;stroke-linecap:round;stroke:rgb(82.745098%,85.490196%,89.019608%)" d="M 5 15 L 9 15 M 5 7 L 9 7 M 7 15 L 7 7" transform="matrix(0.5,0,0,0.5,0.5,0.5)"/>
  <path style="fill:none;stroke-width:2;stroke-linecap:round;stroke-linejoin:bevel;stroke:rgb(82.745098%,85.490196%,89.019608%)" d="M 13 15 L 17 15 M 13 11 L 17 11 M 13 7 L 17 7 M 13 15 L 13 7" transform="matrix(0.5,0,0,0.5,0.5,0.5)"/>
 </g>
</svg>
